X:1
T:Colmar, 88.88.88
T:Colmar, 88.88.88
T:Michael Gasteritz, 16th Century
T:Public Domain Courtesy of the Cyber Hymnal™
C:Michael Gasteritz, 16th Century
Z:Public Domain
Z:Courtesy of the Cyber Hymnal™
%%score ( 1 2 ) ( 3 4 )
L:1/8
Q:1/4=108
M:4/4
K:C
V:1 treble 
V:2 treble 
V:3 bass 
V:4 bass 
V:1
 [Gc]2 | [GB]2 [FA]2 [EG]2 [CE]2 | [CA]2 [FA]2 [EG]2 [EG]2 | [FA]2 [FB]2 [Ec]2 [Ge]2 | %4
 [Ad]2 [Gd]2 [Ec]2 [Gc]2 | [GB]2 [Ad]2 [Gc]2 [EG]2 | [Gd]2 [Gc]2 [GB]2 [^GB]2 | %7
 [Ac]2 [=GB]2 [FA]2 [EG]2 | [DG]2 [D^F]2 [DG]2 [Ec]2 | [GB]2 [FA]2 [DG]2 [CE]2 | %10
 [FA]2 [FA]2 [EG]2 [Ge]2 | d2 [Ec]2 [FB]2 [Ec]2 | [Dc]2 [DB]2 [Ec]2 |] %13
V:2
 x2 | x8 | x8 | x8 | x8 | x8 | x8 | x8 | x8 | x8 | x8 | (GF) x6 | x6 |] %13
V:3
 [C,E]2 | [E,E]2 [F,C]2 [C,C]2 [E,G,]2 | [F,A,]2 [A,C]2 C2 [C,C]2 | [F,C]2 [D,D]2 [A,C]2 [E,C]2 | %4
 [F,C]2 [G,B,]2 [C,C]2 [C,E]2 | [G,D]2 [D,F]2 [E,C]2 [F,C]2 | [D,F]2 [E,E]2 [G,D]2 [E,E]2 | %7
 [A,E]2 [E,E]2 [F,C]2 [C,C]2 | [D,A,]2 [D,A,]2 [G,,B,]2 [C,G,]2 | [E,G,]2 [F,A,]2 [G,B,]2 [A,C]2 | %10
 [F,C]2 [A,C]2 C2 [C,C]2 | [B,,G,]2 [C,C]2 [D,F,]2 [E,G,]2 | [F,A,]2 G,2 [C,G,]2 |] %13
V:4
 x2 | x8 | x4 C2 x2 | x8 | x8 | x8 | x8 | x8 | x8 | x8 | x4 C2 x2 | x8 | x2 G,2 x2 |] %13

